!!!COM: Charles Gounod
!!!CNT: Francais
!!!TXO: Francais
!!!OTL: Ce que Je Suis Sans Toi
!!!LYR: Louis de Peyre
!!!ENC: Jacob Pegg
!!!YOR: Romantic French Song 1830-1870 -David Tunley, ed.,
!!!YOR: New York: Garland Publishing, Inc., 1995, Vol. 5
!!!ODT: 1868/
!!NB: Vocal melody and text only encoded.
!!NB: First instance of melodic material only encoded.
**kern	**silbe
*clef G2	*
*k[f#c#]	*
*M4/4	*
*MM[moderato]	*
!!created: 6/5/03 20:16
!!proofed and posted: 6/5/03 21:12
!!edit time: 28 min.
=6	=6
8r	.
{8f#	{Ce
8f#	qu'est
8f#	le
4a	lier-
4f#	-re
=7	=7
8f#	sans
8g	l'or-
[4e	-meau
8e]}	|}
{8g	{Qui
8b	fut
8dd	l'ap-
=8	=8
8dd	-pui
8f#	de
8a	son
8b	en-
(4a	-fan-
4g)	|
=9	=9
4f#}	-ce,}
4r	.
{4.cc#	{Lui
8a	don-
=10	=10
4.f#	-nant
8f#	dans
4cc#	cha-
8cc#	-que
8a	ra-
=11	=11
[4f#	-meau
8f#]}	|}
8r	.
{4a	{Un
8b	e/-
8cc#	-che-
=12	=12
8dd	-lon
8f#	pour
8g#	sa
8a	crois-
2b	-san-
=13	=13
4a}	-ce,}
4r	.
2r	.
=14	=14
{8a	{Voi-
4dd	-la\
8ccn	ce
8ccn	que
8b	je
8a	suis
8b	sans
=15	=15
[2ccn	toi,
4ccn]}	|}
4r	.
=16	=16
{8fn	{voi-
4b-	-la\
8a	ce
8a	que
8g	je
8fn	suis
8g	sans
=17	=17
[4a	toi
8a]}	|}
8r	.
{4.ee	{Par
8dd	pi-
=18	=18
8ccn}	-tie/,}
8r	.
{8a	{gar-
8b-	-de~
4.cc	~moi
8b-	ta
=19	=19
[4a	foi!
8a]}	|}
8r	.
{4.a	{Par
8g	pi-
=20	=20
8f#}	-tie/,}
8r	.
{8d	{gar-
8e	-de~
4f#	~moi
4e	ta
=21	=21
[4d	foi!
8d]}	|}
8r	.
2r	.
*-	*-
